twitter.svg

<svg xmlns="http://www.w3.org/2000/svg" viewBox="2.1 2.1 19.8 19.8"><path d="M22,3.999c-0.78,0.463-2.345,1.094-3.265,1.276c-0.027,0.007-0.049,0.016-0.075,0.023c-0.813-0.802-1.927-1.299-3.16-1.299 c-2.485,0-4.5,2.015-4.5,4.5c0,0.131-0.011,0.372,0,0.5c-3.353,0-5.905-1.756-7.735-4c-0.199,0.5-0.286,1.29-0.286,2.032 c0,1.401,1.095,2.777,2.8,3.63c-0.314,0.081-0.66,0.139-1.02,0.139c-0.581,0-1.196-0.153-1.759-0.617c0,0.017,0,0.033,0,0.051 c0,1.958,2.078,3.291,3.926,3.662c-0.375,0.221-1.131,0.243-1.5,0.243c-0.26,0-1.18-0.119-1.426-0.165 c0.514,1.605,2.368,2.507,4.135,2.539c-1.382,1.084-2.341,1.486-5.171,1.486H2C3.788,19.145,6.065,20,8.347,20 C15.777,20,20,14.337,20,8.999c0-0.086-0.002-0.266-0.005-0.447C19.995,8.534,20,8.517,20,8.499c0-0.027-0.008-0.053-0.008-0.08 c-0.003-0.136-0.006-0.263-0.009-0.329c0.79-0.57,1.475-1.281,2.017-2.091c-0.725,0.322-1.503,0.538-2.32,0.636 C20.514,6.135,21.699,4.943,22,3.999z"/></svg>

<?xml version="1.0" encoding="UTF-8" standalone="no"?>
<!DOCTYPE svg PUBLIC "-//W3C//DTD SVG 1.1//EN" "http://www.w3.org/Graphics/SVG/1.1/DTD/svg11.dtd">
<svg width="100%" height="100%" viewBox="0 0 20 20" version="1.1" xmlns="http://www.w3.org/2000/svg" xmlns:xlink="http://www.w3.org/1999/xlink" xml:space="preserve" xmlns:serif="http://www.serif.com/" style="fill-rule:evenodd;clip-rule:evenodd;stroke-linejoin:round;stroke-miterlimit:2;">
    <g transform="matrix(1,0,0,1,-2.1,-2.1)">
        <path d="M22,3.999C21.22,4.462 19.655,5.093 18.735,5.275C18.708,5.282 18.686,5.291 18.66,5.298C17.847,4.496 16.733,3.999 15.5,3.999C13.015,3.999 11,6.014 11,8.499C11,8.63 10.989,8.871 11,8.999C7.647,8.999 5.095,7.243 3.265,4.999C3.066,5.499 2.979,6.289 2.979,7.031C2.979,8.432 4.074,9.808 5.779,10.661C5.465,10.742 5.119,10.8 4.759,10.8C4.178,10.8 3.563,10.647 3,10.183L3,10.234C3,12.192 5.078,13.525 6.926,13.896C6.551,14.117 5.795,14.139 5.426,14.139C5.166,14.139 4.246,14.02 4,13.974C4.514,15.579 6.368,16.481 8.135,16.513C6.753,17.597 5.794,17.999 2.964,17.999L2,17.999C3.788,19.145 6.065,20 8.347,20C15.777,20 20,14.337 20,8.999C20,8.913 19.998,8.733 19.995,8.552C19.995,8.534 20,8.517 20,8.499C20,8.472 19.992,8.446 19.992,8.419C19.989,8.283 19.986,8.156 19.983,8.09C20.773,7.52 21.458,6.809 22,5.999C21.275,6.321 20.497,6.537 19.68,6.635C20.514,6.135 21.699,4.943 22,3.999Z" style="fill:rgb(1,0,255);fill-rule:nonzero;"/>
    </g>
</svg>
